usr/share/icons/biglinux-icons-material/24/actions/document-preview-archive.svg

<svg xmlns="http://www.w3.org/2000/svg" viewBox="0 0 24 24">
  <defs id="defs3051">
    <style type="text/css" id="current-color-scheme">
      .ColorScheme-Text {
        color:#dedede;
      }
      </style>
  </defs>
 <path 
    style="fill:currentColor;fill-opacity:1;stroke:none" 
	d="M 5 4 L 5 20 L 6 20 L 13 20 L 13 19 L 6 19 L 6 5 L 18 5 L 18 14 L 19 14 L 19 4 L 18 4 L 6 4 L 5 4 z M 14 12 C 12.337997 12 11 13.337997 11 15 C 11 16.662003 12.337997 18 14 18 C 14.649392 18 15.246354 17.791414 15.736328 17.443359 L 18.292969 20 L 19 19.292969 L 16.443359 16.736328 C 16.791414 16.246354 17 15.649392 17 15 C 17 13.337997 15.662003 12 14 12 z M 14 13 C 15.108003 13 16 13.891997 16 15 C 16 16.108003 15.108003 17 14 17 C 12.891997 17 12 16.108003 12 15 C 12 13.891997 12.891997 13 14 13 z "
    class="ColorScheme-Text"
    />
</svg>

<svg xmlns="http://www.w3.org/2000/svg" viewBox="0 0 24 24"><path d="M5 4v16h8v-1H6V5h12v9h1V4H5zm9 8c-1.662 0-3 1.338-3 3s1.338 3 3 3c.65 0 1.246-.209 1.736-.557L18.293 20l.707-.707-2.557-2.557A2.993 2.993 0 0 0 14 12zm0 1c1.108 0 2 .892 2 2s-.892 2-2 2-2-.892-2-2 .892-2 2-2z" style="fill:currentColor;fill-opacity:1;stroke:none;color:#dedede"/></svg>
